static/assets/images/exchanges/cetus.svg

<svg width="228" height="256" viewBox="0 0 228 256" fill="none" xmlns="http://www.w3.org/2000/svg">
<path fill-rule="evenodd" clip-rule="evenodd" d="M24.4922 247.546C23.2086 251.056 25.2357 254.986 28.9455 255.44C31.9639 255.81 35.0377 256 38.1561 256C61.9988 256 83.2423 244.878 96.9752 227.541C102.508 228.37 108.171 228.8 113.935 228.8C172.836 228.8 221.298 183.921 227.254 126.361C227.718 121.874 224.08 118.125 219.569 118.114L182.55 118.029C168.958 166.845 124.153 202.667 70.9756 202.667C58.4606 202.667 46.4093 200.683 35.1195 197.012L35.137 197.029C35.137 197.029 34.2978 220.731 24.4922 247.546ZM201.756 41.5146C189.541 26.6925 173.675 15.0141 155.542 7.86841C165.663 18.6758 173.733 31.4245 179.134 45.495C182.641 54.6318 187.245 70.6255 187.245 70.6255C192.547 82.9682 198.159 90.3373 215.887 92.9472C221.018 93.7025 225.074 88.9537 223.641 83.9696C219.167 68.4068 211.512 53.3522 201.756 41.5146Z" fill="#2CD4A6"/>
<path d="M112.6 117.867C87.8433 117.867 67.7737 97.809 67.7737 73.0667C67.7737 48.3243 87.8433 28.2667 112.6 28.2667C124.639 28.2667 135.57 33.0096 143.623 40.7278C152.131 48.8816 157.427 60.356 157.427 73.0667C157.427 78.2508 156.546 83.2293 154.925 87.8607C154.113 90.1822 155.501 92.8 157.961 92.8C170.934 92.8 184.11 84.925 187.245 70.6255C187.245 70.6255 182.641 54.6318 179.134 45.495C173.733 31.4245 165.663 18.6758 155.542 7.86841C142.653 2.78908 128.618 0 113.935 0C51.0102 0 0 51.2186 0 114.4C0 115.114 0.00651228 115.826 0.0194777 116.537C0.596372 148.159 13.9517 176.646 35.1195 197.012C46.4093 200.683 58.4606 202.667 70.9756 202.667C124.153 202.667 168.958 166.845 182.55 118.029L112.6 117.867Z" fill="#04EDBF"/>
</svg>

<svg xmlns="http://www.w3.org/2000/svg" fill="none" viewBox="0 0 228 256"><path fill="#2CD4A6" fill-rule="evenodd" d="M24.492 247.546c-1.283 3.51.744 7.44 4.453 7.894 3.019.37 6.093.56 9.211.56 23.843 0 45.086-11.122 58.82-28.459a114.4 114.4 0 0 0 16.959 1.259c58.901 0 107.363-44.879 113.319-102.439.464-4.487-3.174-8.236-7.685-8.247l-37.019-.085c-13.592 48.816-58.397 84.638-111.574 84.638-12.515 0-24.567-1.984-35.856-5.655l.017.017s-.84 23.702-10.645 50.517M201.756 41.515c-12.215-14.823-28.081-26.5-46.214-33.647a115.8 115.8 0 0 1 23.592 37.627c3.507 9.137 8.111 25.13 8.111 25.13 5.302 12.343 10.914 19.712 28.642 22.322 5.131.755 9.187-3.993 7.754-8.977-4.474-15.563-12.129-30.618-21.885-42.455" clip-rule="evenodd"/><path fill="#04EDBF" d="M112.6 117.867c-24.757 0-44.826-20.058-44.826-44.8 0-24.743 20.07-44.8 44.826-44.8 12.039 0 22.97 4.743 31.023 12.46 8.508 8.155 13.804 19.629 13.804 32.34a44.7 44.7 0 0 1-2.502 14.794c-.812 2.321.576 4.939 3.036 4.939 12.973 0 26.149-7.875 29.284-22.174 0 0-4.604-15.994-8.111-25.131a115.8 115.8 0 0 0-23.592-37.627C142.653 2.79 128.618 0 113.935 0 51.01 0 0 51.219 0 114.4q0 1.07.02 2.137c.576 31.622 13.932 60.109 35.1 80.475 11.29 3.671 23.34 5.655 35.856 5.655 53.177 0 97.982-35.822 111.574-84.638z"/></svg>
